modules/feathericon/icons/info.svg

<?xml version="1.0" encoding="UTF-8"?>
<svg width="14px" height="14px" viewBox="0 0 14 14" version="1.1" xmlns="http://www.w3.org/2000/svg" xmlns:xlink="http://www.w3.org/1999/xlink">
    <!-- Generator: sketchtool 48.1 (47250) - http://www.bohemiancoding.com/sketch -->
    <title>info</title>
    <desc>Created with sketchtool.</desc>
    <defs></defs>
    <g id="web-app" stroke="none" stroke-width="1" fill="none" fill-rule="evenodd">
        <g id="info" fill="#000000">
            <path d="M7,5 C7.55228475,5 8,4.55228475 8,4 C8,3.44771525 7.55228475,3 7,3 C6.44771525,3 6,3.44771525 6,4 C6,4.55228475 6.44771525,5 7,5 Z M7,14 C10.8659932,14 14,10.8659932 14,7 C14,3.13400675 10.8659932,0 7,0 C3.13400675,0 0,3.13400675 0,7 C0,10.8659932 3.13400675,14 7,14 Z M6.5,11 L7.5,11 C8,11 8,10.5 8,10.5 L8,6.5 C8,6.5 8,6 7.5,6 L6.5,6 C6,6 6,6.5 6,6.5 L6,10.5 C6,10.5 6,11 6.5,11 Z" id="Shape"></path>
        </g>
    </g>
</svg>

<svg width="14" height="14" viewBox="0 0 14 14" xmlns="http://www.w3.org/2000/svg"><path d="M7 5a1 1 0 1 0 0-2 1 1 0 0 0 0 2zm0 9A7 7 0 1 0 7 0a7 7 0 0 0 0 14zm-.5-3h1c.5 0 .5-.5.5-.5v-4S8 6 7.5 6h-1c-.5 0-.5.5-.5.5v4s0 .5.5.5z" fill="#000" fill-rule="evenodd"/></svg>
